src/main/resources/icons/SpyJSIcons/icons/spyjs_nodejs.svg

<svg xmlns="http://www.w3.org/2000/svg" width="16" height="16" viewBox="0 0 16 16">
  <g fill="none" fill-rule="evenodd">
    <path fill="#DDB47E" d="M13.9593719,8.70750996 L13.1906853,8.26331146 C12.9906354,8.14933885 12.7228396,8.14933885 12.5211958,8.26331146 L9.33394772,10.1020165 C9.1275218,10.2199741 9,10.4431373 9,10.6822407 L9,12.9285714 L8,13.9 L4.5,10.5 L3.19956058,10.5 C2.44633379,10.0821697 2,9.56280296 2,9 C2,8.64444764 2.178137,8.30623117 2.49925242,8 L13.5007476,8 C13.7325018,8.22101202 13.8897822,8.45868436 13.9593719,8.70750996 Z"/>
    <path fill="#231F20" fill-opacity=".7" d="M11.951072,8.59221257 L9.65765766,9.91527007 C9.03006209,9.71342192 8.55102428,9.17056929 8.42983447,8.5 L7.57016553,8.5 C7.41592679,9.35343614 6.68205475,10 5.8,10 C4.80588745,10 4,9.17871961 4,8.1656189 C4,8.10979509 4.00244685,8.05455368 4.00723723,8 L11.9927628,8 C11.9975531,8.05455368 12,8.10979509 12,8.1656189 C12,8.31248736 11.9830634,8.4553245 11.951072,8.59221257 Z"/>
    <path fill="#40B6E0" fill-opacity=".7" d="M6.575301,1 C7.30801468,1 7.60890327,2.54334761 8,2.5 C8.44974341,2.45015222 8.7,0.999165375 9.5,0.9996 C10.5,0.99988975 11.3333333,2.66668975 12,6 L15,8.0000001 L1,8.0000001 L4,6 C4.66666667,2.66666667 5.52510033,1 6.575301,1 Z"/>
    <path fill="#231F20" fill-opacity=".7" d="M4.15153238,5 L11.8488813,5 C11.9001714,5.21367018 11.9505443,5.43589981 12,5.66668888 L12,6 L4,6 L4,5.66668888 C4.04945547,5.43589888 4.09996626,5.21366926 4.15153238,5 Z"/>
    <path fill="#40B6E0" fill-opacity=".7" d="M9,12.9285714 L9,14.3564626 C9,14.594769 9.1275218,14.8179321 9.33394772,14.9374838 L9.44222676,15 L2,15 L4,13.5 L3,10.5 L4.5,10.5 L8,13.9 L9,12.9285714 Z"/>
    <path fill="#689F63" d="M2.7957718,6.77001105 L0.31449789,5.33741876 C0.153811301,5.24435703 0.0545454545,5.0706418 0.0545454545,4.88513875 L0.0545454545,2.02504155 C0.0545454545,1.83891809 0.153811301,1.66520286 0.31449789,1.57338195 L2.79552364,0.142092526 C2.95248776,0.0533736763 3.16094603,0.0533736763 3.31666933,0.142092526 L5.79459302,1.57400236 C5.9546592,1.66644368 6.05454545,1.8395385 6.05454545,2.02566196 L6.05454545,4.88575916 C6.05454545,5.07126221 5.9546592,5.24435703 5.79459302,5.33741876 L3.31666933,6.76870818 C3.23725665,6.81461864 3.14729698,6.83819427 3.05547607,6.83819427 C2.96514415,6.83949714 2.87518448,6.81573538 2.7957718,6.77001105 Z" transform="translate(9.945 9)"/>
  </g>
</svg>

<svg xmlns="http://www.w3.org/2000/svg" width="16" height="16" viewBox="0 0 16 16"><rect id="frame" width="16" height="16" fill="none"/><g fill="none" fill-rule="evenodd"><path fill="#DDB47E" d="M13.96 8.708l-.77-.445a.698.698 0 0 0-.669 0l-3.187 1.839a.67.67 0 0 0-.334.58v2.247L8 13.9l-3.5-3.4H3.2C2.446 10.082 2 9.563 2 9c0-.356.178-.694.5-1h11c.233.221.39.459.46.708z"/><path fill="#231F20" fill-opacity=".7" d="M11.951 8.592L9.658 9.915A1.826 1.826 0 0 1 8.43 8.5h-.86A1.81 1.81 0 0 1 5.8 10C4.806 10 4 9.179 4 8.166c0-.056.002-.111.007-.166h7.986a1.893 1.893 0 0 1-.042.592z"/><path fill="#40B6E0" fill-opacity=".7" d="M6.575 1C7.308 1 7.61 2.543 8 2.5c.45-.05.7-1.5 1.5-1.5 1 0 1.833 1.667 2.5 5l3 2H1l3-2c.667-3.333 1.525-5 2.575-5z"/><path fill="#231F20" fill-opacity=".7" d="M4.152 5h7.697c.051.214.102.436.151.667V6H4v-.333c.05-.231.1-.453.152-.667z"/><path fill="#40B6E0" fill-opacity=".7" d="M9 12.929v1.427c0 .239.128.462.334.581l.108.063H2l2-1.5-1-3h1.5L8 13.9l1-.971z"/><path fill="#689F63" d="M12.74 15.77l-2.48-1.433a.524.524 0 0 1-.26-.452v-2.86c0-.186.099-.36.26-.452l2.48-1.43a.543.543 0 0 1 .522 0l2.478 1.431c.16.092.26.266.26.452v2.86c0 .185-.1.358-.26.451l-2.478 1.432a.52.52 0 0 1-.521.001z"/></g></svg>
